X:1
T:Title
%%score { ( 1 4 ) | ( 2 3 ) }
L:1/8
M:6/8
K:C
V:1 treble nm="Grand Piano"
V:4 treble 
V:2 bass 
V:3 bass 
V:1
 z3 z2[Q:1/4=100] [EG] | [EG]2 [_E^F] [=FA][=EG][DF] | [CE] [EG]2- [EG]2 [Ec] | B2 F B2 A | %4
[M:5/8] [EG]-[EG]- [EG]3 |[M:1/8] [EG] |[M:3/4] [Ec]2 [Gc]d cA | [EG]3 E2 E | D2 G B2 A | %9
[M:5/8] [B,G]-[B,G]- [B,G]3 |[M:1/8] G |[M:3/4] d2 GG AB | c-[Gc-] [Fc-] [Ec]2 [Ec] | %13
 [Ge]2 [Ec] [EG]2 [Gc] |[M:5/8] d-d- d3 |[M:1/8] G |[M:3/4] [Ge]2 [Ec]d cA | [EG]3 [Ec]2 [Ec] | %18
 B2 G A2 B |[M:5/8] [Ec]-[Ec]- [Ec]3 |] %20
V:2
 z3 z2 [C,C] | [C,C]2 [C,C] [C,C][C,C][C,G,] | [C,G,] [C,C]2- [C,C]2 [C,G,] | %3
 [G,F]2 [G,B,D] [G,DF]2 [G,B,F] |[M:5/8][K:bass] [C,C]-[C,C]- [C,C]3 |[M:1/8] [C,C] | %6
[M:3/4] [C,G,]2 [E,G,][F,A,F] [F,A,F][F,CF] | [C,C]3 [C,G,C]2 [C,G,C] | %8
 [D,G,B,]2 [D,G,B,] [D,G,D]2 [D,^F,C] |[M:5/8] [G,,G,]-[G,,G,]- [G,,G,]3 |[M:1/8] [G,B,] | %11
[M:3/4][K:treble] [G,B,F]2 [G,B,F][G,F]- [G,CF][G,DF] | [C,C][C,B,] [C,A,] [C,G,]2 [C,G,] | %13
 [C,C]2 [C,C] [C,C]2 [E,C] |[M:5/8][K:treble] [B,G] z z z2 |[M:1/8] [G,B,] | %16
[M:3/4][K:bass] [C,C]2 [C,G,][F,A,F] [F,A,F][F,CF] | [C,C]3 [C,G,]2 [C,G,] | %18
 [G,F]2 [G,B,F] [G,DF]2 [G,DF] |[M:5/8][K:bass] [C,C]-[C,C]- [C,C]3 |] %20
V:3
 x6 | x6 | x6 | x6 |[M:5/8][K:bass] x5 |[M:1/8] x |[M:3/4] x6 | x6 | x6 |[M:5/8] x5 |[M:1/8] x | %11
[M:3/4][K:treble] z2 z B, z2 | x6 | x6 |[M:5/8][K:treble] G,-[G,D][G,C] [G,B,]2 |[M:1/8] x | %16
[M:3/4][K:bass] x6 | x6 | x6 |[M:5/8][K:bass] x5 |] %20
V:4
 x6 | x6 | x6 | x6 |[M:5/8] x5 |[M:1/8] x |[M:3/4] x6 | x6 | x6 |[M:5/8] x5 |[M:1/8] x | %11
[M:3/4] x6 | .E2 z2 z2 | x6 |[M:5/8] z BA G2 |[M:1/8] x |[M:3/4] x6 | x6 | x6 |[M:5/8] x5 |] %20

